public/images/icons.svg

<svg aria-hidden="true" style="position: absolute; width: 0; height: 0; overflow: hidden;" version="1.1"
     xmlns="http://www.w3.org/2000/svg" xmlns:xlink="http://www.w3.org/1999/xlink">
    <defs>
        <symbol id="icon-guarantee" viewBox="0 0 32 32">
            <path d="M12.9 18.267l1.167-3.8-3.067-2.467h3.8l1.2-3.733 1.2 3.733h3.8l-3.1 2.467 1.167 3.8-3.067-2.367-3.1 2.367zM8 30.667v-10.3q-1.267-1.4-1.967-3.2t-0.7-3.833q0-4.467 3.1-7.567t7.567-3.1 7.567 3.1 3.1 7.567q0 2.033-0.7 3.833t-1.967 3.2v10.3l-8-2.667-8 2.667zM16 21.333q3.333 0 5.667-2.333t2.333-5.667-2.333-5.667-5.667-2.333-5.667 2.333-2.333 5.667 2.333 5.667 5.667 2.333zM10.667 26.7l5.333-1.367 5.333 1.367v-4.133q-1.167 0.667-2.517 1.050t-2.817 0.383-2.817-0.383-2.517-1.050v4.133z"></path>
        </symbol>
        <symbol id="icon-play" viewBox="0 0 30 32">
            <path d="M29.538 16l-27.692 15.988v-31.976l27.692 15.988z"></path>
        </symbol>
        <symbol id="icon-done" viewBox="0 0 32 32">
            <path d="M11.467 30l-2.533-4.267-4.8-1.067 0.467-4.933-3.267-3.733 3.267-3.733-0.467-4.933 4.8-1.067 2.533-4.267 4.533 1.933 4.533-1.933 2.533 4.267 4.8 1.067-0.467 4.933 3.267 3.733-3.267 3.733 0.467 4.933-4.8 1.067-2.533 4.267-4.533-1.933-4.533 1.933zM12.6 26.6l3.4-1.467 3.467 1.467 1.867-3.2 3.667-0.867-0.333-3.733 2.467-2.8-2.467-2.867 0.333-3.733-3.667-0.8-1.933-3.2-3.4 1.467-3.467-1.467-1.867 3.2-3.667 0.8 0.333 3.733-2.467 2.867 2.467 2.8-0.333 3.8 3.667 0.8 1.933 3.2zM14.6 20.733l7.533-7.533-1.867-1.933-5.667 5.667-2.867-2.8-1.867 1.867 4.733 4.733z"></path>
        </symbol>
        <symbol id="icon-shopping" viewBox="0 0 32 32">
            <path stroke-linejoin="round" stroke-linecap="round" stroke-miterlimit="4" stroke-width="2.6667" d="M14.667 27.333c0 0.736-0.597 1.333-1.333 1.333s-1.333-0.597-1.333-1.333c0-0.736 0.597-1.333 1.333-1.333s1.333 0.597 1.333 1.333z"></path>
            <path stroke-linejoin="round" stroke-linecap="round" stroke-miterlimit="4" stroke-width="2.6667" d="M25.333 27.333c0 0.736-0.597 1.333-1.333 1.333s-1.333-0.597-1.333-1.333c0-0.736 0.597-1.333 1.333-1.333s1.333 0.597 1.333 1.333z"></path>
            <path stroke-linejoin="round" stroke-linecap="round" stroke-miterlimit="4" stroke-width="2.6667" d="M3.333 3.333h4l3.6 16.533c0.257 1.226 1.329 2.134 2.613 2.134 0.019 0 0.038-0 0.057-0.001l-0.003 0h10.267c0.016 0 0.035 0.001 0.054 0.001 1.284 0 2.356-0.908 2.61-2.117l0.003-0.017 2.133-11.2h-19.2"></path>
        </symbol>
        <symbol id="icon-close" viewBox="0 0 24 24">
            <path stroke-linejoin="miter" stroke-linecap="round" stroke-miterlimit="4" stroke-width="2" d="M9 6l6 6 6-6M9 18l6-6 6 6"></path>
        </symbol>
        <symbol id="icon-up" viewBox="0 0 32 32">
            <path stroke-linejoin="round" stroke-linecap="round" stroke-miterlimit="4" stroke-width="2.6667" d="M24 20l-8-8-8 8"></path>
        </symbol>
    </defs>
</svg>

<svg aria-hidden="true" style="position:absolute;width:0;height:0;overflow:hidden" xmlns="http://www.w3.org/2000/svg"><defs><symbol id="icon-guarantee" viewBox="0 0 32 32"><path d="m12.9 18.267 1.167-3.8L11 12h3.8L16 8.267 17.2 12H21l-3.1 2.467 1.167 3.8L16 15.9l-3.1 2.367zM8 30.667v-10.3q-1.267-1.4-1.967-3.2t-.7-3.833q0-4.467 3.1-7.567T16 2.667t7.567 3.1 3.1 7.567q0 2.033-.7 3.833T24 20.367v10.3L16 28l-8 2.667zm8-9.334q3.333 0 5.667-2.333T24 13.333t-2.333-5.667T16 5.333t-5.667 2.333T8 13.333 10.333 19 16 21.333zM10.667 26.7 16 25.333l5.333 1.367v-4.133q-1.167.667-2.517 1.05T15.999 24t-2.817-.383-2.517-1.05V26.7z"/></symbol><symbol id="icon-play" viewBox="0 0 30 32"><path d="M29.538 16 1.846 31.988V.012L29.538 16z"/></symbol><symbol id="icon-done" viewBox="0 0 32 32"><path d="m11.467 30-2.533-4.267-4.8-1.067.467-4.933L1.334 16l3.267-3.733-.467-4.933 4.8-1.067L11.467 2 16 3.933 20.533 2l2.533 4.267 4.8 1.067-.467 4.933L30.666 16l-3.267 3.733.467 4.933-4.8 1.067L20.533 30 16 28.067 11.467 30zm1.133-3.4 3.4-1.467 3.467 1.467 1.867-3.2 3.667-.867-.333-3.733 2.467-2.8-2.467-2.867.333-3.733-3.667-.8-1.933-3.2-3.4 1.467L12.534 5.4l-1.867 3.2L7 9.4l.333 3.733L4.866 16l2.467 2.8L7 22.6l3.667.8 1.933 3.2zm2-5.867 7.533-7.533-1.867-1.933-5.667 5.667-2.867-2.8-1.867 1.867 4.733 4.733z"/></symbol><symbol id="icon-shopping" viewBox="0 0 32 32"><path stroke-linejoin="round" stroke-linecap="round" stroke-width="2.667" d="M14.667 27.333a1.333 1.333 0 1 1-2.667 0 1.333 1.333 0 0 1 2.667 0zm10.666 0a1.333 1.333 0 1 1-2.667 0 1.333 1.333 0 0 1 2.667 0zm-22-24h4l3.6 16.533A2.672 2.672 0 0 0 13.546 22l.057-.001H13.6h10.267l.054.001a2.669 2.669 0 0 0 2.61-2.117l.003-.017 2.133-11.2h-19.2"/></symbol><symbol id="icon-close" viewBox="0 0 24 24"><path stroke-linecap="round" stroke-width="2" d="m9 6 6 6 6-6M9 18l6-6 6 6"/></symbol><symbol id="icon-up" viewBox="0 0 32 32"><path stroke-linejoin="round" stroke-linecap="round" stroke-width="2.667" d="m24 20-8-8-8 8"/></symbol></defs></svg>
